!!!COM: Music21
!!!OTL: Alumeos
!!!OMV: pezas_marchas_alumeos_alumeos-partitura.musicxml
**kern
*part1
*staff1
*I"Bagpipes
*I'Bag
*clefG^2
*k[]
*M2/4
=1
!LO:TX:a:t=Andante
*MM96
!LO:TX:a:t=[quarter]=96
4r
8cccL
8bbJ
=
8ggL
8eeJ
8ffL
8ggJ
=
8.aaL
16ggJk
16ffLL
16gg
16aa
16ffJJ
=
4gg
8cccL
8bbJ
=
8.ggL
16aaJk
16ggLL
16ff
16ee
16ggJJ
=
8.ffL
16ggJk
16ffLL
16ee
16dd
16ffJJ
=
[2ee
=
2ee_
!!linebreak:original
=
2ee_
!!linebreak:original
=||
4ee]
8eeL
8ggJ
=||
8ggL
8eeJ
8ffL
8ggJ
=
4.ff
16ggLL
16ffJJ
=
[2ee
=
4ee]
8ggL
8bbJ
=
8bbL
8ggJ
8aaL
8bbJ
=
4.aa
16bbLL
16aaJJ
=
[2gg
=
4gg]
8eeL
8ggJ
=
8ggL
8eeJ
8ffL
8ggJ
!!linebreak:original
=
4.ff
16ggLL
16ffJJ
=
4ee
.
8ccL
16ddL
16eeJJ
=
4ff
4gg
=
4ee
4ff
=
4.dd
16eeLL
16ddJJ
=
[2cc
=
4cc]
8eeL
8ggJ
=||
8ggL
8eeJ
8ffL
8ggJ
=
4.ff
16ggLL
16ffJJ
=
[2ee
!!linebreak:original
=
4ee]
8ggL
8bbJ
=
8bbL
8ggJ
8aaL
8bbJ
=
4.aa
16bbLL
16aaJJ
=
[2gg
=
4gg]
8eeL
8ggJ
=
8ggL
8eeJ
8ffL
8ggJ
!!pagebreak:original
=
4.ff
16ggLL
16ffJJ
=
4ee
.
8ccL
16ddL
16eeJJ
=
4ff
4gg
=
4ee
4ff
=
4.dd
16eeLL
16ddJJ
=
[2cc
=
4.cc]
8gg^
=||
4ee
8eeL
8ggJ
=
4.ee
8gg^
!!linebreak:original
=
4ee
8eeL
8ggJ
=
2ee
=
4.bb
8bb
=
8bbL
8bbJ
8cccL
8bbJ
=
8aaL
16bbL
16aaJJ
[4gg
=
4.gg]
8gg
=||
4ee
8eeL
8ggJ
=
4.ee
8gg^
!!linebreak:original
=
4ee
8eeL
8ggJ
=
2ee
=
4.bb
8bb
=
8bbL
8bbJ
8cccL
8bbJ
=
8aaL
16bbL
16aaJJ
[4gg
=
4gg]
8eeL
8ggJ
=||
8.cccL
16bbJk
8aaL
8ggJ
=
4aa
4gg
!!linebreak:original
=
8.aaL
16bbJk
8aaL
8ggJ
=
16ffLL
16gg
16ff
16eeJJ
8ddL
8ffJ
=
8.bbL
16aaJk
8ggL
8ffJ
=
4gg
4ff
=
8.ggL
16aaJk
8ggL
8ffJ
=
16ggLL
16aa
16gg
16ffJJ
8eeL
8ggJ
=||
8.cccL
16bbJk
8aaL
8ggJ
=
4aa
4gg
!!linebreak:original
=
8.aaL
16bbJk
8aaL
8ggJ
=
16ffLL
16gg
16ff
16eeJJ
8ddL
8ffJ
=
8.bbL
16aaJk
8ggL
8ffJ
=
4gg
4ff
=
8.ggL
16aaJk
8ggL
8ffJ
=||
4ee
4gg
!!pagebreak:original
=
8.ffL
16eeJk
16ddLL
16ee
16ff
16ddJJ
=
8eeL
16ddL
16ccJJ
16bLL
16cc
16dd
16bJJ
=
[2cc
=||
4cc]
8eeL
8ggJ
=||
8ggL
8eeJ
8ffL
8ggJ
=
4.ff
16ggLL
16ffJJ
=
4ee
16ccLL
16dd
16ee
16ffJJ
=
16ggLL
16ff
16ee
16ffJJ
8ggL
8bbJ
!!linebreak:original
=
8bbL
8ggJ
8aaL
8bbJ
=
4.aa
16bbLL
16aaJJ
=
4gg
16ccLL
16dd
16ee
16ffJJ
=
16ggLL
16ff
16ee
16ddJJ
8eeL
8ggJ
=
8ggL
8eeJ
8ffL
8ggJ
=
4.ff
16ggLL
16ffJJ
=
4ee
.
8cccL
8bb-XJ
.
=
4aa-X
8bb-XL
8aa-J
!!linebreak:original
=
2gg
.
=
4.ff
16ggLL
16ffJJ
=
8.eeL
16aaJk
16ggLL
16aa
16gg
16aaJJ
=
4gg
8eeL
8ggJ
=||
8ggL
8eeJ
8ffL
8ggJ
=
4.ff
16ggLL
16ffJJ
=
4ee
16ccLL
16dd
16ee
16ffJJ
=
16ggLL
16ff
16ee
16ffJJ
8ggL
8bbJ
!!linebreak:original
=
8bbL
8ggJ
8aaL
8bbJ
=
4.aa
16bbLL
16aaJJ
=
4gg
16ccLL
16dd
16ee
16ffJJ
=
16ggLL
16ff
16ee
16ddJJ
8eeL
8ggJ
=
8ggL
8eeJ
8ffL
8ggJ
=
4.ff
16ggLL
16ffJJ
=
4ee
.
8cccL
8bb-XJ
.
=
4aa-X
8bb-XL
8aa-J
!!linebreak:original
=
2gg
.
=
4.ff
16ggLL
16ffJJ
=
8.eeL
16aaJk
16ggLL
16aa
16gg
16aaJJ
=
16ggLL
16ff
16ee
16ddJJ
8ccL
8gg^J
=||
4ee
4gg
=
2aa-X
=
[2gg
=
2gg]
!!linebreak:original
=
4gg
8aaL
8bbJ
=
[2ccc
=
2ccc_
=
4ccc]
4r
==
*-
!!!system-decoration: s1,s2
